ui/StatusQ/src/assets/img/icons/transaction/failed.svg

<svg fill="none" height="24" viewBox="0 0 22 24" width="24" xmlns="http://www.w3.org/2000/svg"><path d="m12.9167 2.14434-.4167.72169.4167-.72169c-1.1861-.68476-2.6473-.68476-3.83337 0l.41667.72169-.41667-.72169-5.66025 3.26795c-1.18604.68476-1.91667 1.95024-1.91667 3.31976v6.53585c0 1.3696.73063 2.6351 1.91667 3.3198l5.66025 3.268c1.18607.6847 2.64727.6847 3.83337 0l5.6602-3.268c1.1861-.6847 1.9167-1.9502 1.9167-3.3198v-6.53585c0-1.36952-.7306-2.635-1.9167-3.31976z" fill="#ff2d55"/><path clip-rule="evenodd" d="m11 18.875c.8629 0 1.5625-.6996 1.5625-1.5625s-.6996-1.5625-1.5625-1.5625-1.5625.6996-1.5625 1.5625.6996 1.5625 1.5625 1.5625zm-1.25-11.875c0-.69036.5596-1.25 1.25-1.25s1.25.55964 1.25 1.25v5.625c0 .6904-.5596 1.25-1.25 1.25s-1.25-.5596-1.25-1.25z" fill="#fff" fill-rule="evenodd"/></svg>

<svg width="24" height="24" viewBox="0 0 22 24" fill="none" xmlns="http://www.w3.org/2000/svg">
<path d="M12.9167 2.14434L12.5 2.86603L12.9167 2.14434C11.7306 1.45958 10.2694 1.45958 9.08333 2.14434L9.5 2.86603L9.08333 2.14434L3.42308 5.41229C2.23704 6.09705 1.50641 7.36253 1.50641 8.73205V15.2679C1.50641 16.6375 2.23704 17.903 3.42308 18.5877L9.08333 21.8557C10.2694 22.5404 11.7306 22.5404 12.9167 21.8557L18.5769 18.5877C19.763 17.903 20.4936 16.6375 20.4936 15.2679V8.73205C20.4936 7.36253 19.763 6.09705 18.5769 5.41229L12.9167 2.14434Z" fill="#FF2D55"/>
<path fill-rule="evenodd" clip-rule="evenodd" d="M11 18.875C11.8629 18.875 12.5625 18.1754 12.5625 17.3125C12.5625 16.4496 11.8629 15.75 11 15.75C10.1371 15.75 9.4375 16.4496 9.4375 17.3125C9.4375 18.1754 10.1371 18.875 11 18.875ZM9.75 7C9.75 6.30964 10.3096 5.75 11 5.75C11.6904 5.75 12.25 6.30964 12.25 7V12.625C12.25 13.3154 11.6904 13.875 11 13.875C10.3096 13.875 9.75 13.3154 9.75 12.625V7Z" fill="white"/>
</svg>
